assets/icons/group.svg

<svg fill="none" height="22" viewBox="0 0 22 22" width="22" xmlns="http://www.w3.org/2000/svg"><g fill="#64748b" opacity=".6"><path d="m21.5258 9.26884c-.0505-.32825-.1262-.94688-.808-.94688-.6565 0-.7701.58075-.8458.92163-.5934 2.87851-3.1689 4.98691-6.1358 5.01211-.0127 0-.0253 0-.0379 0-3.0048 0-5.54242-2.0705-6.1863-5.04998-.61863-2.82802.88376-5.76967 3.5603-6.96905.2399-.11363.505-.17675.7701-.2525.2778-.07575.5681-.1515.8333-.27775.2903-.13888.6186-.50501.6186-.78276 0-.227251-.2651-.441878-.505-.618629-.0379-.037875-.0884-.063125-.1263-.101001-.101-.07575-.2398-.088375-.3661-.101-.0379 0-.0757 0-.101-.0126254-3.09314-.3913776-6.18628.5555034-8.5093 2.5881454-2.32301 2.04526-3.6738966 4.99953-3.68652172 8.10535-.01262508 3.3835 1.50238172 6.5145 4.16628172 8.585 1.93163 1.5024 4.24202 2.2978 6.61554 2.2978.8838 0 1.7801-.1137 2.6765-.3409 2.5882-.6565 4.8354-2.222 6.3126-4.4188 1.5023-2.2094 2.1336-4.9238 1.7548-7.63816zm-13.58454 4.10316c1.48976 1.6034 3.76224 2.5124 6.07264 2.4493 2.2094-.0632 4.2421-1.0353 5.7571-2.7397-.6439 3.8002-4.8733 7.0953-9.0648 7.0196-2.39882-.0505-4.63346-.9722-6.29997-2.5756-1.67913-1.6286-2.67652-3.8632-2.81539-6.2999-.16413-2.97949 1.06051-5.08788 2.12101-6.32514 1.27514-1.51501 3.05527-2.60077 4.89854-3.01739-2.10839 1.89376-2.6639 4.05265-2.7649 5.56766-.12625 2.19676.63126 4.35567 2.09577 5.92117z"/><path d="m12.0444 6.49133c-.3535 0-.7197 0-1.0732 0-.3282 0-.5681.07575-.7322.23988-.1389.13887-.202.32825-.202.56812 0 .47976.3409.77013.909.77013h1.0858.404l.0126.03788c-.1768.17675-.3661.3535-.5429.51763-.505.49238-1.0353.99738-1.515 1.52763-.202.2146-.3535.6691-.2525.9595.0884.2651.5555.4671.8206.4798.4924.0252.9974.0252 1.4898.0252h.8332.8333.0631c.7828 0 .9469-.4292.9595-.7954 0-.2398-.0631-.4166-.202-.5555-.1641-.1641-.4166-.2398-.7449-.2398-.3408 0-.6943 0-1.0857 0h-.3788c.1768-.1768.3535-.34092.5177-.51768.5555-.54287 1.0731-1.0605 1.5655-1.59076.1893-.202.3787-.66913.2525-.92163-.1389-.27775-.5682-.47975-.8712-.505-.707-.01263-1.4392 0-2.1462 0z"/><path d="m17.3722 1.56753h1.1363.4292l.0253.0505c-.1768.17675-.3535.3535-.5429.51763-.5177.505-1.0605 1.01001-1.5529 1.55288-.202.21463-.3535.65651-.2525.90901.101.26513.5176.49238.7954.505.5302.02525 1.0731.02525 1.616.02525.4166 0 .8332 0 1.2372-.01262h.4924c.2904 0 .5176-.07575.6691-.23988.1389-.13887.202-.34088.1894-.58075-.0126-.34088-.1641-.73226-.8585-.73226-.3787 0-.7449 0-1.1615 0h-.3661c.0252-.02525.0505-.0505.0757-.07575.1137-.12625.202-.22725.2904-.31562.1768-.17676.3409-.34088.5176-.51763.404-.39138.8207-.80801 1.1994-1.23726.202-.22725.303-.66913.2273-.921632-.0758-.239876-.4924-.4545027-.7702-.4671278-.909-.0378753-1.8432-.02525019-2.7522-.02525019-.2147 0-.4419 0-.6565 0-.2525 0-.4545.06312539-.5934.18937599-.1515.138876-.2273.328252-.2273.580754 0 .505.303.78276.8333.79538z"/></g></svg>

<svg width="22" height="22" viewBox="0 0 22 22" fill="none" xmlns="http://www.w3.org/2000/svg">
<g opacity="0.6">
<path d="M21.5258 9.26884C21.4753 8.94059 21.3996 8.32196 20.7178 8.32196C20.0613 8.32196 19.9477 8.90271 19.872 9.24359C19.2786 12.1221 16.7031 14.2305 13.7362 14.2557C13.7235 14.2557 13.7109 14.2557 13.6983 14.2557C10.6935 14.2557 8.15588 12.1852 7.512 9.20572C6.89337 6.3777 8.39576 3.43605 11.0723 2.23667C11.3122 2.12304 11.5773 2.05992 11.8424 1.98417C12.1202 1.90842 12.4105 1.83267 12.6757 1.70642C12.966 1.56754 13.2943 1.20141 13.2943 0.92366C13.2943 0.696409 13.0292 0.481782 12.7893 0.305031C12.7514 0.267156 12.7009 0.241906 12.663 0.20403C12.562 0.12828 12.4232 0.115655 12.2969 0.10303C12.259 0.10303 12.2212 0.10303 12.1959 0.0904046C9.10276 -0.300973 6.00962 0.645908 3.6866 2.67855C1.36359 4.72381 0.0127034 7.67808 7.82814e-05 10.7839C-0.0125468 14.1674 1.50246 17.2984 4.16636 19.3689C6.09799 20.8713 8.40838 21.6667 10.7819 21.6667C11.6657 21.6667 12.562 21.553 13.4584 21.3258C16.0466 20.6693 18.2938 19.1038 19.771 16.907C21.2733 14.6976 21.9046 11.9832 21.5258 9.26884ZM7.94126 13.372C9.43102 14.9754 11.7035 15.8844 14.0139 15.8213C16.2233 15.7581 18.256 14.786 19.771 13.0816C19.1271 16.8818 14.8977 20.1769 10.7062 20.1012C8.30738 20.0507 6.07274 19.129 4.40623 17.5256C2.7271 15.897 1.72971 13.6624 1.59084 11.2257C1.42671 8.24621 2.65135 6.13782 3.71185 4.90056C4.98699 3.38555 6.76712 2.29979 8.61039 1.88317C6.502 3.77693 5.94649 5.93582 5.84549 7.45083C5.71924 9.64759 6.47675 11.8065 7.94126 13.372Z" fill="#64748B"/>
<path d="M12.0444 6.49133C11.6909 6.49133 11.3247 6.49133 10.9712 6.49133C10.643 6.49133 10.4031 6.56708 10.239 6.73121C10.1001 6.87008 10.037 7.05946 10.037 7.29933C10.037 7.77909 10.3779 8.06946 10.946 8.06946C11.3121 8.06946 11.6782 8.06946 12.0318 8.06946C12.1706 8.06946 12.2969 8.06946 12.4358 8.06946L12.4484 8.10734C12.2716 8.28409 12.0823 8.46084 11.9055 8.62497C11.4005 9.11735 10.8702 9.62235 10.3905 10.1526C10.1885 10.3672 10.037 10.8217 10.138 11.1121C10.2264 11.3772 10.6935 11.5792 10.9586 11.5919C11.451 11.6171 11.956 11.6171 12.4484 11.6171C12.7261 11.6171 13.0039 11.6171 13.2816 11.6171C13.5594 11.6171 13.8371 11.6171 14.1149 11.6171C14.1401 11.6171 14.1528 11.6171 14.178 11.6171C14.9608 11.6171 15.1249 11.1879 15.1375 10.8217C15.1375 10.5819 15.0744 10.4051 14.9355 10.2662C14.7714 10.1021 14.5189 10.0264 14.1906 10.0264C13.8498 10.0264 13.4963 10.0264 13.1049 10.0264H12.7261C12.9029 9.8496 13.0796 9.68548 13.2438 9.50872C13.7993 8.96585 14.3169 8.44822 14.8093 7.91796C14.9986 7.71596 15.188 7.24883 15.0618 6.99633C14.9229 6.71858 14.4936 6.51658 14.1906 6.49133C13.4836 6.4787 12.7514 6.49133 12.0444 6.49133Z" fill="#64748B"/>
<path d="M17.3722 1.56753C17.7509 1.56753 18.1297 1.56753 18.5085 1.56753H18.9377L18.963 1.61803C18.7862 1.79478 18.6095 1.97153 18.4201 2.13566C17.9024 2.64066 17.3596 3.14567 16.8672 3.68854C16.6652 3.90317 16.5137 4.34505 16.6147 4.59755C16.7157 4.86268 17.1323 5.08993 17.4101 5.10255C17.9403 5.1278 18.4832 5.1278 19.0261 5.1278C19.4427 5.1278 19.8593 5.1278 20.2633 5.11518H20.7557C21.0461 5.11518 21.2733 5.03943 21.4248 4.8753C21.5637 4.73643 21.6268 4.53442 21.6142 4.29455C21.6016 3.95367 21.4501 3.56229 20.7557 3.56229C20.377 3.56229 20.0108 3.56229 19.5942 3.56229H19.2281C19.2533 3.53704 19.2786 3.51179 19.3038 3.48654C19.4175 3.36029 19.5058 3.25929 19.5942 3.17092C19.771 2.99416 19.9351 2.83004 20.1118 2.65329C20.5158 2.26191 20.9325 1.84528 21.3112 1.41603C21.5132 1.18878 21.6142 0.7469 21.5385 0.494398C21.4627 0.254522 21.0461 0.0398953 20.7683 0.0272702C19.8593 -0.0106051 18.9251 0.00202001 18.0161 0.00202001C17.8014 0.00202001 17.5742 0.00202001 17.3596 0.00202001C17.1071 0.00202001 16.9051 0.0651454 16.7662 0.191396C16.6147 0.330272 16.5389 0.519648 16.5389 0.77215C16.5389 1.27715 16.8419 1.55491 17.3722 1.56753Z" fill="#64748B"/>
</g>
</svg>
